icons/src/scalable/default/status/network-cellular-no-route-symbolic.svg

<?xml version="1.0" encoding="UTF-8" standalone="no"?>
<svg
   enable-background="new"
   height="16"
   width="16"
   version="1.1"
   id="svg4"
   sodipodi:docname="network-cellular-no-route-symbolic.svg"
   inkscape:version="1.1.2 (0a00cf5339, 2022-02-04)"
   xmlns:inkscape="http://www.inkscape.org/namespaces/inkscape"
   xmlns:sodipodi="http://sodipodi.sourceforge.net/DTD/sodipodi-0.dtd"
   xmlns="http://www.w3.org/2000/svg"
   xmlns:svg="http://www.w3.org/2000/svg">
  <defs
     id="defs8" />
  <sodipodi:namedview
     id="namedview6"
     pagecolor="#ffffff"
     bordercolor="#666666"
     borderopacity="1.0"
     inkscape:pageshadow="2"
     inkscape:pageopacity="0.0"
     inkscape:pagecheckerboard="0"
     showgrid="false"
     inkscape:zoom="47.5625"
     inkscape:cx="8"
     inkscape:cy="8"
     inkscape:window-width="1904"
     inkscape:window-height="1011"
     inkscape:window-x="0"
     inkscape:window-y="32"
     inkscape:window-maximized="1"
     inkscape:current-layer="svg4" />
  <path
     id="path2"
     style="stroke-width:1.07143;fill:#bebebe"
     d="M 15.5 0.5 L 11.224609 4.7753906 C 11.213091 5.1043362 11.143256 5.3978726 11.017578 5.6601562 C 10.874578 5.9451563 10.700234 6.2137969 10.490234 6.4667969 A 7.23 7.23 0 0 1 9.7910156 7.2011719 C 9.5280156 7.4411719 9.2883125 7.6930312 9.0703125 7.9570312 L 9.0683594 7.9589844 C 8.8473594 8.2149844 8.6617188 8.5004531 8.5117188 8.8144531 C 8.3567188 9.1244531 8.2792969 9.4762812 8.2792969 9.8632812 L 8.2792969 10.050781 C 8.2792969 10.074781 8.2880625 10.096141 8.2890625 10.119141 L 7.2011719 10.119141 C 7.1691719 9.9281408 7.1445312 9.7333906 7.1445312 9.5253906 A 2.378 2.378 0 0 1 7.2851562 8.7148438 L 0.5 15.5 L 15.5 15.5 L 15.5 0.5 z M 7.2851562 8.7148438 L 11.224609 4.7753906 C 11.225739 4.7431382 11.226562 4.7106835 11.226562 4.6777344 A 3.06 3.06 0 0 0 11.080078 3.7636719 L 11.078125 3.7617188 L 11.078125 3.7597656 A 2.04 2.04 0 0 0 10.597656 2.8925781 C 10.363656 2.6375781 10.045625 2.4276719 9.640625 2.2636719 L 9.640625 2.2617188 C 9.255625 2.0897187 8.7443281 2 8.1113281 2 L 8.109375 2 C 7.576375 2 7.0726562 2.0615938 6.5976562 2.1835938 A 5.853 5.853 0 0 0 5.4316406 2.6289062 L 4.7734375 3.0878906 L 5.3398438 3.9628906 L 5.7910156 3.6269531 C 6.4790155 3.2769531 7.1842501 3.0878906 7.90625 3.0878906 C 8.51325 3.0878906 8.9971251 3.247125 9.328125 3.578125 C 9.655125 3.894125 9.8203125 4.315453 9.8203125 4.8144531 C 9.8203125 5.1254531 9.7475157 5.4166406 9.6035156 5.6816406 C 9.4735156 5.9396405 9.3047032 6.1849688 9.0957031 6.4179688 C 8.8907031 6.6449688 8.6752656 6.8726094 8.4472656 7.0996094 L 8.4472656 7.1015625 A 6.392 6.392 0 0 0 7.8144531 7.8007812 L 7.8144531 7.8027344 A 3.66 3.66 0 0 0 7.3222656 8.5898438 A 2.378 2.378 0 0 0 7.2851562 8.7148438 z M 7.8398438 11.962891 C 8.1648438 11.962891 8.4020313 12.063672 8.5820312 12.263672 C 8.7680312 12.469672 8.8574219 12.702422 8.8574219 12.982422 C 8.8574219 13.260422 8.7680312 13.493219 8.5820312 13.699219 C 8.4010312 13.900219 8.1648437 14 7.8398438 14 C 7.5148438 14 7.2776562 13.899219 7.0976562 13.699219 C 6.9116563 13.493219 6.8222656 13.261422 6.8222656 12.982422 A 1.025 1.025 0 0 1 7.0976562 12.263672 C 7.2786563 12.063672 7.5138438 11.962891 7.8398438 11.962891 z " />
</svg>

<svg version="1.1" viewBox="0 0 16 16" xmlns="http://www.w3.org/2000/svg">
 <path d="m15.5 0.5-4.2754 4.2754c-0.011518 0.32895-0.081353 0.62248-0.20703 0.88477-0.143 0.285-0.31734 0.55364-0.52734 0.80664a7.23 7.23 0 0 1-0.69922 0.73438c-0.263 0.24-0.5027 0.49186-0.7207 0.75586l-0.0019531 0.0019532c-0.221 0.256-0.40664 0.54147-0.55664 0.85547-0.155 0.31-0.23242 0.66183-0.23242 1.0488v0.1875c0 0.024 0.0087656 0.04536 0.0097656 0.06836h-1.0879c-0.032-0.191-0.056641-0.38575-0.056641-0.59375a2.378 2.378 0 0 1 0.14062-0.81055l-6.7852 6.7852h15v-15zm-8.2148 8.2148 3.9395-3.9395c0.00113-0.032252 0.001953-0.064707 0.001953-0.097656a3.06 3.06 0 0 0-0.14648-0.91406l-0.001953-0.0019531v-0.0019532a2.04 2.04 0 0 0-0.48047-0.86719c-0.234-0.255-0.55203-0.46491-0.95703-0.62891v-0.0019531c-0.385-0.172-0.8963-0.26172-1.5293-0.26172h-0.0019531c-0.533 0-1.0367 0.061594-1.5117 0.18359a5.853 5.853 0 0 0-1.166 0.44531l-0.6582 0.45898 0.56641 0.875 0.45117-0.33594c0.688-0.35 1.3932-0.53906 2.1152-0.53906 0.607 0 1.0909 0.15923 1.4219 0.49023 0.327 0.316 0.49219 0.73733 0.49219 1.2363 0 0.311-0.072797 0.60219-0.2168 0.86719-0.13 0.258-0.29881 0.50333-0.50781 0.73633-0.205 0.227-0.42044 0.45464-0.64844 0.68164v0.0019531a6.392 6.392 0 0 0-0.63281 0.69922v0.0019532a3.66 3.66 0 0 0-0.49219 0.78711 2.378 2.378 0 0 0-0.037109 0.125zm0.55469 3.248c0.325 0 0.56219 0.10078 0.74219 0.30078 0.186 0.206 0.27539 0.43875 0.27539 0.71875 0 0.278-0.089391 0.5108-0.27539 0.7168-0.181 0.201-0.41719 0.30078-0.74219 0.30078-0.325 0-0.56219-0.10078-0.74219-0.30078-0.186-0.206-0.27539-0.4378-0.27539-0.7168a1.025 1.025 0 0 1 0.27539-0.71875c0.181-0.2 0.41619-0.30078 0.74219-0.30078z" fill="#bebebe" stroke-width="1.0714"/>
</svg>
